source/img/whatwedo/content-2.svg

<svg width="284" height="216" viewBox="0 0 284 216" fill="none" xmlns="http://www.w3.org/2000/svg">
<path d="M207.995 138C207.988 150.129 204.67 162.023 198.403 172.377C192.136 182.731 183.163 191.146 172.467 196.701C171.841 197.031 171.205 197.347 170.564 197.652C170.276 197.795 169.993 197.927 169.7 198.06C167.872 198.905 165.997 199.663 164.075 200.335C162.56 200.869 161.005 201.353 159.435 201.77C144.603 205.752 128.856 204.371 114.929 197.866C114.359 197.596 113.788 197.322 113.228 197.037C102.801 191.779 93.9557 183.81 87.6062 173.952C81.2567 164.095 77.6331 152.708 77.1099 140.967C76.5867 129.226 79.1828 117.557 84.6301 107.166C90.0773 96.7743 98.178 88.0377 108.095 81.8586C118.013 75.6794 129.387 72.2817 141.042 72.0166C152.698 71.7514 164.213 74.6285 174.396 80.3504C184.58 86.0724 193.063 94.4318 198.97 104.565C204.876 114.698 207.992 126.237 207.995 137.99V138Z" fill="url(#paint0_linear)"/>
<path d="M116.854 178.742L109.623 167.355C109.623 167.355 129.654 144.012 131.659 142.632C131.659 142.632 121.555 159.72 116.854 178.742Z" fill="url(#paint1_linear)"/>
<path d="M109.623 167.355L95.9896 179.572L70.9093 167.355L51.7217 168.414C51.7217 168.414 63.6735 172.486 67.0364 172.318L70.4044 172.15C70.4044 172.15 91.0008 192.17 95.7372 193.697C100.473 195.224 116.031 183.252 116.031 183.252L116.934 178.778L109.623 167.355Z" fill="url(#paint2_linear)"/>
<path d="M147.241 139.868C145.346 140.793 143.309 141.385 141.217 141.619C138.798 141.986 135.122 140.632 135.122 140.632C137.899 138.428 137.253 133.23 137.253 133.23L137.313 133.2C140.277 132.971 142.757 131.276 144.489 129.637C143.863 134.086 147.241 139.868 147.241 139.868Z" fill="url(#paint3_linear)"/>
<path d="M147.241 123.315V126.369C146.452 127.555 145.53 128.647 144.494 129.621C142.762 131.266 140.283 132.961 137.319 133.185C135.972 133.288 134.62 133.088 133.36 132.599C125.281 129.545 130.962 113.384 130.962 113.384C133.527 106.807 145.14 109.988 145.14 109.988C146.695 111.857 146.993 117.074 146.933 117.583C146.674 118.298 146.335 118.981 145.923 119.619C145.923 119.619 148.13 117.522 148.887 118.917C149.644 120.311 147.241 123.315 147.241 123.315Z" fill="url(#paint4_linear)"/>
<path d="M147.241 126.379V123.325C147.241 123.325 149.639 120.347 148.882 118.942C148.125 117.537 145.918 119.645 145.918 119.645C146.33 119.007 146.669 118.324 146.928 117.609C146.988 117.1 146.736 112.177 145.135 110.014C145.135 110.014 133.522 106.832 130.957 113.409C130.957 113.409 127.634 112.559 124.771 108.573C120.09 102.053 125.68 101.254 131.219 102.511C137.94 104.038 144.676 99.0292 152.376 104.119C160.076 109.21 153.174 120.78 147.241 126.379Z" fill="#262F72"/>
<g filter="url(#filter0_d)">
<path d="M94.3838 97.9602H28.8681C27.2841 97.9602 26 99.2547 26 100.851V161.751C26 163.348 27.2841 164.642 28.8681 164.642H94.3838C95.9678 164.642 97.2519 163.348 97.2519 161.751V100.851C97.2519 99.2547 95.9678 97.9602 94.3838 97.9602Z" fill="white"/>
</g>
<path d="M36.9116 110.044C36.7297 110.252 36.4961 110.407 36.235 110.492C35.9234 110.601 35.5953 110.655 35.2655 110.65C34.9232 110.658 34.5851 110.574 34.2859 110.406C34.0025 110.24 33.7755 109.991 33.6346 109.693C33.4741 109.349 33.3929 108.974 33.3972 108.594V108.298C33.3881 107.912 33.4621 107.528 33.6144 107.174C33.7452 106.873 33.9636 106.619 34.2405 106.446C34.5756 106.263 34.9544 106.177 35.3349 106.197C35.7155 106.218 36.0829 106.345 36.3966 106.563C36.6978 106.84 36.879 107.226 36.9015 107.637H36.0381C36.0185 107.429 35.9253 107.236 35.7755 107.092C35.6168 106.969 35.4198 106.908 35.2201 106.919C35.0854 106.911 34.9512 106.939 34.8301 106.999C34.7089 107.058 34.605 107.148 34.5283 107.26C34.3511 107.568 34.2685 107.923 34.291 108.278V108.553C34.2691 108.911 34.3592 109.267 34.5485 109.571C34.6359 109.687 34.7501 109.78 34.8813 109.841C35.0125 109.902 35.1565 109.93 35.3009 109.922C35.5565 109.945 35.8111 109.868 36.0128 109.708V108.96H35.2049V108.304H36.9015L36.9116 110.044Z" fill="#64B5F6"/>
<path d="M88.8299 106.191H42.4059C41.8398 106.191 41.3809 106.654 41.3809 107.224V110.981C41.3809 111.552 41.8398 112.014 42.4059 112.014H88.8299C89.396 112.014 89.8549 111.552 89.8549 110.981V107.224C89.8549 106.654 89.396 106.191 88.8299 106.191Z" fill="#E7EEF2"/>
<path d="M89.8549 115.303H41.3809V116.321H89.8549V115.303Z" fill="#BBDEFB"/>
<path d="M89.8549 117.593H41.3809V118.611H89.8549V117.593Z" fill="#E7E8E9"/>
<path d="M89.8549 119.884H41.3809V120.902H89.8549V119.884Z" fill="#E7E8E9"/>
<path d="M89.8549 122.174H41.3809V123.192H89.8549V122.174Z" fill="#E7E8E9"/>
<path d="M89.8549 126.46H41.3809V127.478H89.8549V126.46Z" fill="#BBDEFB"/>
<path d="M89.8549 128.751H41.3809V129.769H89.8549V128.751Z" fill="#E7E8E9"/>
<path d="M89.8549 131.042H41.3809V132.06H89.8549V131.042Z" fill="#E7E8E9"/>
<path d="M89.8549 133.332H41.3809V134.35H89.8549V133.332Z" fill="#E7E8E9"/>
<path d="M89.8549 137.491H41.3809V138.509H89.8549V137.491Z" fill="#BBDEFB"/>
<path d="M89.8549 139.782H41.3809V140.8H89.8549V139.782Z" fill="#E7E8E9"/>
<path d="M89.8549 142.072H41.3809V143.09H89.8549V142.072Z" fill="#E7E8E9"/>
<path d="M89.8549 144.363H41.3809V145.381H89.8549V144.363Z" fill="#E7E8E9"/>
<path d="M89.8549 148.521H41.3809V149.54H89.8549V148.521Z" fill="#BBDEFB"/>
<path d="M89.8549 150.812H41.3809V151.83H89.8549V150.812Z" fill="#E7E8E9"/>
<path d="M89.8549 153.103H41.3809V154.121H89.8549V153.103Z" fill="#E7E8E9"/>
<path d="M89.8549 155.393H41.3809V156.411H89.8549V155.393Z" fill="#E7E8E9"/>
<path d="M164.707 164.459C168.161 174.823 170.721 186.82 172.468 196.701C171.842 197.032 171.206 197.347 170.564 197.653C170.276 197.795 169.994 197.927 169.701 198.06C167.873 198.905 165.998 199.663 164.076 200.335C162.561 200.87 161.006 201.353 159.435 201.771C144.604 205.752 128.857 204.371 114.93 197.866C114.36 197.597 113.789 197.322 113.229 197.037C114.238 191.809 115.44 185.665 116.849 178.747C117.361 176.24 117.898 173.63 118.46 170.919C121.353 157.027 125.504 149.463 128.932 145.366L128.967 145.325C129.619 144.546 130.324 143.814 131.078 143.136C131.099 143.111 131.123 143.089 131.149 143.07C131.32 142.917 131.492 142.775 131.654 142.637C133.719 140.942 135.123 140.632 135.123 140.632L135.249 140.678H135.32C136.416 141.114 137.566 141.399 138.738 141.528H138.935H138.965C139.714 141.6 140.467 141.612 141.217 141.563H141.263C143.347 141.429 145.377 140.839 147.211 139.833C149.362 140.55 151.388 141.603 153.215 142.953C158.436 146.816 168.954 160.982 168.954 160.982L164.707 164.459Z" fill="url(#paint5_linear)"/>
<path d="M183.939 183.802C183.909 185.217 182.632 188.088 180.763 191.57C178.127 193.487 175.352 195.202 172.462 196.701C171.836 197.031 171.2 197.347 170.558 197.652C170.271 197.795 169.988 197.927 169.695 198.06C167.867 198.905 165.992 199.663 164.07 200.335L168.948 184.662L156.324 171.3L164.701 164.459L168.948 160.993C168.948 160.993 184.071 178.33 183.939 183.802Z" fill="url(#paint6_linear)"/>
<defs>
<filter id="filter0_d" x="16" y="91.9602" width="91.2519" height="86.6821" filterUnits="userSpaceOnUse" color-interpolation-filters="sRGB">
<feFlood flood-opacity="0" result="BackgroundImageFix"/>
<feColorMatrix in="SourceAlpha" type="matrix" values="0 0 0 0 0 0 0 0 0 0 0 0 0 0 0 0 0 0 127 0"/>
<feOffset dy="4"/>
<feGaussianBlur stdDeviation="5"/>
<feColorMatrix type="matrix" values="0 0 0 0 0 0 0 0 0 0 0 0 0 0 0 0 0 0 0.15 0"/>
<feBlend mode="normal" in2="BackgroundImageFix" result="effect1_dropShadow"/>
<feBlend mode="normal" in="SourceGraphic" in2="effect1_dropShadow" result="shape"/>
</filter>
<linearGradient id="paint0_linear" x1="142.788" y1="79.1674" x2="140.512" y2="209.263" gradientUnits="userSpaceOnUse">
<stop stop-color="white" stop-opacity="0"/>
<stop offset="1" stop-color="#64B5F6" stop-opacity="0.6"/>
</linearGradient>
<linearGradient id="paint1_linear" x1="122.231" y1="140.209" x2="118.384" y2="175.452" gradientUnits="userSpaceOnUse">
<stop stop-color="#42A5F5"/>
<stop offset="1" stop-color="#1565C0"/>
</linearGradient>
<linearGradient id="paint2_linear" x1="78.5339" y1="177.322" x2="120.455" y2="182.833" gradientUnits="userSpaceOnUse">
<stop stop-color="#FFE082"/>
<stop offset="1" stop-color="#FFA726"/>
</linearGradient>
<linearGradient id="paint3_linear" x1="9433.78" y1="2616.52" x2="9436.77" y2="2387.66" gradientUnits="userSpaceOnUse">
<stop stop-color="#FFE082"/>
<stop offset="1" stop-color="#FFA726"/>
</linearGradient>
<linearGradient id="paint4_linear" x1="15003.3" y1="4147.82" x2="15796.5" y2="4147.82" gradientUnits="userSpaceOnUse">
<stop stop-color="#FFE082"/>
<stop offset="1" stop-color="#FFA726"/>
</linearGradient>
<linearGradient id="paint5_linear" x1="42964.6" y1="15175.6" x2="48863.7" y2="20845.6" gradientUnits="userSpaceOnUse">
<stop stop-color="#42A5F5"/>
<stop offset="1" stop-color="#1565C0"/>
</linearGradient>
<linearGradient id="paint6_linear" x1="23025.9" y1="12337.9" x2="22622.5" y2="9819.27" gradientUnits="userSpaceOnUse">
<stop stop-color="#FFE082"/>
<stop offset="1" stop-color="#FFA726"/>
</linearGradient>
</defs>
</svg>

<svg width="284" height="216" fill="none" xmlns="http://www.w3.org/2000/svg"><path d="M207.995 138a66.475 66.475 0 01-9.592 34.377 65.762 65.762 0 01-27.839 25.275 62.77 62.77 0 01-6.489 2.683 65.183 65.183 0 01-49.146-2.469 65.651 65.651 0 01-27.323-23.914 66.374 66.374 0 01-10.496-32.985 66.443 66.443 0 017.52-33.801 65.793 65.793 0 0123.465-25.307 65.097 65.097 0 0132.947-9.842 65.056 65.056 0 0133.354 8.333 65.726 65.726 0 0124.574 24.215 66.422 66.422 0 019.025 33.425v.01z" fill="url(#paint0_linear)"/><path d="M116.854 178.742l-7.231-11.387s20.031-23.343 22.036-24.723c0 0-10.104 17.088-14.805 36.11z" fill="url(#paint1_linear)"/><path d="M109.623 167.355L95.99 179.572l-25.08-12.217-19.188 1.059s11.951 4.072 15.314 3.904l3.368-.168s20.597 20.02 25.333 21.547c4.736 1.527 20.294-10.445 20.294-10.445l.903-4.474-7.311-11.423z" fill="url(#paint2_linear)"/><path d="M147.241 139.868a18.392 18.392 0 01-6.024 1.751c-2.419.367-6.095-.987-6.095-.987 2.777-2.204 2.131-7.402 2.131-7.402l.06-.03c2.964-.229 5.444-1.924 7.176-3.563-.626 4.449 2.752 10.231 2.752 10.231z" fill="url(#paint3_linear)"/><path d="M147.241 123.315v3.054a18.619 18.619 0 01-2.747 3.252c-1.732 1.645-4.211 3.34-7.175 3.564a9.035 9.035 0 01-3.959-.586c-8.079-3.054-2.398-19.215-2.398-19.215 2.565-6.577 14.178-3.396 14.178-3.396 1.555 1.869 1.853 7.086 1.793 7.595a10.085 10.085 0 01-1.01 2.036s2.207-2.097 2.964-.702c.757 1.394-1.646 4.398-1.646 4.398z" fill="url(#paint4_linear)"/><path d="M147.241 126.379v-3.054s2.398-2.978 1.641-4.383c-.757-1.405-2.964.703-2.964.703.412-.638.751-1.321 1.01-2.036.06-.509-.192-5.432-1.793-7.595 0 0-11.613-3.182-14.178 3.395 0 0-3.323-.85-6.186-4.836-4.681-6.52.909-7.319 6.448-6.062 6.721 1.527 13.457-3.482 21.157 1.608 7.7 5.091.798 16.661-5.135 22.26z" fill="#262F72"/><g filter="url(#filter0_d)"><path d="M94.384 97.96H28.868c-1.584 0-2.868 1.295-2.868 2.891v60.9c0 1.597 1.284 2.891 2.868 2.891h65.516c1.584 0 2.868-1.294 2.868-2.891v-60.9c0-1.596-1.284-2.89-2.868-2.89z" fill="#fff"/></g><path d="M36.912 110.044a1.528 1.528 0 01-.677.448c-.312.109-.64.163-.97.158a1.909 1.909 0 01-.98-.244 1.637 1.637 0 01-.65-.713 2.53 2.53 0 01-.238-1.099v-.296c-.009-.386.065-.77.217-1.124.131-.301.35-.555.627-.728a2.058 2.058 0 011.094-.249c.38.021.748.148 1.062.366.3.277.482.663.505 1.074h-.864a.868.868 0 00-.262-.545.831.831 0 00-.556-.173.78.78 0 00-.692.341c-.177.308-.26.663-.237 1.018v.275c-.022.358.068.714.258 1.018a.884.884 0 00.752.351c.255.023.51-.054.712-.214v-.748h-.808v-.656h1.697l.01 1.74z" fill="#64B5F6"/><path d="M88.83 106.191H42.406a1.03 1.03 0 00-1.025 1.033v3.757c0 .571.459 1.033 1.025 1.033H88.83c.566 0 1.025-.462 1.025-1.033v-3.757a1.03 1.03 0 00-1.025-1.033z" fill="#E7EEF2"/><path d="M89.855 115.303H41.38v1.018h48.474v-1.018z" fill="#BBDEFB"/><path d="M89.855 117.593H41.38v1.018h48.474v-1.018zm0 2.291H41.38v1.018h48.474v-1.018zm0 2.29H41.38v1.018h48.474v-1.018z" fill="#E7E8E9"/><path d="M89.855 126.46H41.38v1.018h48.474v-1.018z" fill="#BBDEFB"/><path d="M89.855 128.751H41.38v1.018h48.474v-1.018zm0 2.291H41.38v1.018h48.474v-1.018zm0 2.29H41.38v1.018h48.474v-1.018z" fill="#E7E8E9"/><path d="M89.855 137.491H41.38v1.018h48.474v-1.018z" fill="#BBDEFB"/><path d="M89.855 139.782H41.38v1.018h48.474v-1.018zm0 2.29H41.38v1.018h48.474v-1.018zm0 2.291H41.38v1.018h48.474v-1.018z" fill="#E7E8E9"/><path d="M89.855 148.521H41.38v1.019h48.474v-1.019z" fill="#BBDEFB"/><path d="M89.855 150.812H41.38v1.018h48.474v-1.018zm0 2.291H41.38v1.018h48.474v-1.018zm0 2.29H41.38v1.018h48.474v-1.018z" fill="#E7E8E9"/><path d="M164.707 164.459c3.454 10.364 6.014 22.361 7.761 32.242-.626.331-1.262.646-1.904.952a62.77 62.77 0 01-6.488 2.682 61.329 61.329 0 01-4.641 1.436 65.187 65.187 0 01-44.505-3.905 63.612 63.612 0 01-1.701-.829 1794.335 1794.335 0 015.231-26.118c2.893-13.892 7.044-21.456 10.472-25.553l.035-.041a21.504 21.504 0 012.111-2.189.403.403 0 01.071-.066c.171-.153.343-.295.505-.433 2.065-1.695 3.469-2.005 3.469-2.005l.126.046h.071c1.096.436 2.246.721 3.418.85h.227c.749.072 1.502.084 2.252.035h.046a14.27 14.27 0 005.948-1.73 21.595 21.595 0 016.004 3.12c5.221 3.863 15.739 18.029 15.739 18.029l-4.247 3.477z" fill="url(#paint5_linear)"/><path d="M183.939 183.802c-.03 1.415-1.307 4.286-3.176 7.768a64.995 64.995 0 01-8.301 5.131c-.626.33-1.262.646-1.904.951a62.77 62.77 0 01-6.488 2.683l4.878-15.673-12.624-13.362 8.377-6.841 4.247-3.466s15.123 17.337 14.991 22.809z" fill="url(#paint6_linear)"/><defs><linearGradient id="paint0_linear" x1="142.788" y1="79.167" x2="140.512" y2="209.263" gradientUnits="userSpaceOnUse"><stop stop-color="#fff" stop-opacity="0"/><stop offset="1" stop-color="#64B5F6" stop-opacity=".6"/></linearGradient><linearGradient id="paint1_linear" x1="122.231" y1="140.209" x2="118.384" y2="175.452" gradientUnits="userSpaceOnUse"><stop stop-color="#42A5F5"/><stop offset="1" stop-color="#1565C0"/></linearGradient><linearGradient id="paint2_linear" x1="78.534" y1="177.322" x2="120.455" y2="182.833" gradientUnits="userSpaceOnUse"><stop stop-color="#FFE082"/><stop offset="1" stop-color="#FFA726"/></linearGradient><linearGradient id="paint3_linear" x1="9433.78" y1="2616.52" x2="9436.77" y2="2387.66" gradientUnits="userSpaceOnUse"><stop stop-color="#FFE082"/><stop offset="1" stop-color="#FFA726"/></linearGradient><linearGradient id="paint4_linear" x1="15003.3" y1="4147.82" x2="15796.5" y2="4147.82" gradientUnits="userSpaceOnUse"><stop stop-color="#FFE082"/><stop offset="1" stop-color="#FFA726"/></linearGradient><linearGradient id="paint5_linear" x1="42964.6" y1="15175.6" x2="48863.7" y2="20845.6" gradientUnits="userSpaceOnUse"><stop stop-color="#42A5F5"/><stop offset="1" stop-color="#1565C0"/></linearGradient><linearGradient id="paint6_linear" x1="23025.9" y1="12337.9" x2="22622.5" y2="9819.27" gradientUnits="userSpaceOnUse"><stop stop-color="#FFE082"/><stop offset="1" stop-color="#FFA726"/></linearGradient><filter id="filter0_d" x="16" y="91.96" width="91.252" height="86.682" filterUnits="userSpaceOnUse" color-interpolation-filters="sRGB"><feFlood flood-opacity="0" result="BackgroundImageFix"/><feColorMatrix in="SourceAlpha" values="0 0 0 0 0 0 0 0 0 0 0 0 0 0 0 0 0 0 127 0"/><feOffset dy="4"/><feGaussianBlur stdDeviation="5"/><feColorMatrix values="0 0 0 0 0 0 0 0 0 0 0 0 0 0 0 0 0 0 0.15 0"/><feBlend in2="BackgroundImageFix" result="effect1_dropShadow"/><feBlend in="SourceGraphic" in2="effect1_dropShadow" result="shape"/></filter></defs></svg>
